public/assets/icons/file-other.svg

<svg width="45" height="45" viewBox="0 0 45 45" fill="none" xmlns="http://www.w3.org/2000/svg">
<path d="M38.1377 10.2714L30.1956 3.12921C29.9336 2.8911 29.5926 2.75874 29.2386 2.75782H11.7831C10.6068 2.72299 9.46413 3.15337 8.60307 3.95561C7.742 4.75785 7.23196 5.86724 7.18359 7.04311V38.4686C7.23196 39.6445 7.742 40.7539 8.60307 41.5561C9.46413 42.3583 10.6068 42.7887 11.7831 42.7539H34.0095C35.1859 42.7887 36.3285 42.3583 37.1896 41.5561C38.0507 40.7539 38.5607 39.6445 38.6091 38.4686V11.3284C38.6086 11.1291 38.5664 10.9321 38.4852 10.75C38.4041 10.568 38.2857 10.4049 38.1377 10.2714ZM22.6535 15.6137H23.1392C24.222 15.6127 25.2807 15.933 26.1813 16.5341C27.0819 17.1352 27.7839 17.99 28.1984 18.9903C28.6129 19.9906 28.7213 21.0914 28.5098 22.1533C28.2982 23.2152 27.7764 24.1905 27.0102 24.9556L25.0961 26.8697C24.8498 27.1089 24.6545 27.3955 24.5219 27.7122C24.3893 28.0288 24.3223 28.3691 24.3248 28.7124C24.3248 29.0913 24.1743 29.4546 23.9064 29.7225C23.6385 29.9904 23.2752 30.1409 22.8963 30.1409C22.5175 30.1409 22.1542 29.9904 21.8863 29.7225C21.6184 29.4546 21.4679 29.0913 21.4679 28.7124C21.4681 27.2612 22.0434 25.8693 23.0677 24.8414L24.9818 22.9273C25.2282 22.6881 25.4235 22.4016 25.5561 22.0849C25.6886 21.7682 25.7557 21.4279 25.7532 21.0846C25.7532 20.3913 25.4778 19.7264 24.9876 19.2362C24.4973 18.746 23.8325 18.4706 23.1392 18.4706H22.6535C21.9602 18.4706 21.2953 18.746 20.8051 19.2362C20.3149 19.7264 20.0395 20.3913 20.0395 21.0846C20.0395 21.4634 19.889 21.8268 19.6211 22.0946C19.3532 22.3625 18.9899 22.513 18.611 22.513C18.2322 22.513 17.8689 22.3625 17.601 22.0946C17.3331 21.8268 17.1826 21.4634 17.1826 21.0846C17.1864 19.6348 17.764 18.2454 18.7892 17.2203C19.8143 16.1951 21.2037 15.6175 22.6535 15.6137ZM21.4679 32.7549C21.4609 32.6645 21.4609 32.5738 21.4679 32.4835C21.4811 32.3889 21.5101 32.2971 21.5536 32.2121C21.5849 32.121 21.6281 32.0346 21.6822 31.955C21.7349 31.8801 21.7922 31.8086 21.8536 31.7407C21.9894 31.6106 22.1496 31.5087 22.325 31.4407C22.5851 31.3313 22.8718 31.3014 23.1489 31.3548C23.426 31.4082 23.6811 31.5425 23.882 31.7407C23.9434 31.8086 24.0006 31.8801 24.0534 31.955C24.1074 32.0346 24.1507 32.121 24.1819 32.2121C24.2254 32.2971 24.2544 32.3889 24.2676 32.4835C24.2938 32.5723 24.3129 32.663 24.3248 32.7549C24.3195 33.1331 24.1715 33.4953 23.9105 33.7691L23.6963 33.9405C23.6166 33.9945 23.5302 34.0378 23.4391 34.069L23.182 34.1833H22.8963C22.7097 34.1811 22.5253 34.1422 22.3535 34.069C22.1782 34.0011 22.018 33.8991 21.8822 33.7691C21.6211 33.4953 21.4732 33.1331 21.4679 32.7549Z" fill="#6295F2"/>
<path d="M38.6104 11.3264V14.1833H30.0398C28.9033 14.1833 27.8133 13.7318 27.0096 12.9282C26.206 12.1245 25.7545 11.0345 25.7545 9.89801V2.75586H29.2399C29.5939 2.75678 29.9349 2.88914 30.1969 3.12725L38.139 10.2694C38.287 10.403 38.4054 10.566 38.4865 10.748C38.5677 10.9301 38.6099 11.1271 38.6104 11.3264Z" fill="#98B8FE"/>
<path d="M38.4377 32.4679C38.4377 32.4451 38.4467 32.4233 38.4628 32.4073C38.4788 32.3912 38.5006 32.3822 38.5234 32.3822C38.5461 32.3822 38.5679 32.3912 38.584 32.4073C38.6 32.4233 38.6091 32.4451 38.6091 32.4679V38.4673C38.5607 39.6432 38.0507 40.7526 37.1896 41.5548C36.3285 42.357 35.1859 42.7874 34.0095 42.7526H11.7831C10.6068 42.7874 9.46413 42.357 8.60307 41.5548C7.742 40.7526 7.23196 39.6432 7.18359 38.4673V32.4964C7.18359 32.4737 7.19262 32.4519 7.2087 32.4358C7.22477 32.4198 7.24657 32.4107 7.2693 32.4107C7.29203 32.4107 7.31383 32.4198 7.3299 32.4358C7.34598 32.4519 7.35501 32.4737 7.35501 32.4964C7.66518 33.4195 8.262 34.2193 9.05852 34.7795C9.85503 35.3396 10.8096 35.6307 11.7831 35.6104H34.0095C34.9866 35.6288 35.9438 35.3335 36.7408 34.7679C37.5377 34.2023 38.1325 33.3962 38.4377 32.4679Z" fill="url(#paint0_linear_187_3827)"/>
<defs>
<linearGradient id="paint0_linear_187_3827" x1="22.8963" y1="42.7519" x2="22.8963" y2="32.4101" gradientUnits="userSpaceOnUse">
<stop offset="0.14" stop-color="#3758C0"/>
<stop offset="0.24" stop-color="#446BCF"/>
<stop offset="0.4" stop-color="#5582E2"/>
<stop offset="0.55" stop-color="#5F90EE"/>
<stop offset="0.68" stop-color="#6295F2"/>
</linearGradient>
</defs>
</svg>

<svg xmlns="http://www.w3.org/2000/svg" width="45" height="45" fill="none"><path fill="#6295F2" d="M38.138 10.271 30.196 3.13a1.43 1.43 0 0 0-.957-.371H11.783a4.47 4.47 0 0 0-4.6 4.285V38.47a4.47 4.47 0 0 0 4.6 4.285H34.01a4.47 4.47 0 0 0 4.6-4.285v-27.14a1.43 1.43 0 0 0-.472-1.058m-15.484 5.343h.485a5.47 5.47 0 0 1 3.871 9.342l-1.914 1.914a2.54 2.54 0 0 0-.771 1.842 1.428 1.428 0 1 1-2.857 0c0-1.45.575-2.843 1.6-3.87l1.914-1.915a2.54 2.54 0 0 0 .771-1.842 2.614 2.614 0 0 0-2.614-2.614h-.485a2.614 2.614 0 0 0-2.614 2.614 1.428 1.428 0 1 1-2.857 0 5.485 5.485 0 0 1 5.47-5.471m-1.186 17.14a2 2 0 0 1 0-.27.9.9 0 0 1 .086-.272q.046-.137.128-.257a2 2 0 0 1 .172-.214c.135-.13.296-.232.471-.3a1.43 1.43 0 0 1 1.557.3q.092.102.171.214.082.12.129.257a.9.9 0 0 1 .086.271q.039.135.057.272a1.5 1.5 0 0 1-.415 1.014l-.214.172q-.12.08-.257.128l-.257.114h-.286a1.4 1.4 0 0 1-.543-.114 1.4 1.4 0 0 1-.47-.3 1.5 1.5 0 0 1-.415-1.014"/><path fill="#98B8FE" d="M38.61 11.326v2.857h-8.57a4.286 4.286 0 0 1-4.285-4.285V2.756h3.485c.354 0 .695.133.957.371l7.942 7.142a1.43 1.43 0 0 1 .471 1.057"/><path fill="url(#a)" d="M38.438 32.468a.085.085 0 0 1 .085-.086.086.086 0 0 1 .086.086v6a4.47 4.47 0 0 1-4.6 4.285H11.784a4.47 4.47 0 0 1-4.6-4.286v-5.97a.086.086 0 0 1 .172 0 4.57 4.57 0 0 0 4.428 3.113H34.01a4.57 4.57 0 0 0 4.428-3.142"/><defs><linearGradient id="a" x1="22.896" x2="22.896" y1="42.752" y2="32.41" gradientUnits="userSpaceOnUse"><stop offset=".14" stop-color="#3758C0"/><stop offset=".24" stop-color="#446BCF"/><stop offset=".4" stop-color="#5582E2"/><stop offset=".55" stop-color="#5F90EE"/><stop offset=".68" stop-color="#6295F2"/></linearGradient></defs></svg>
